X:1
T:Title
%%score { ( 1 4 6 ) | ( 2 3 5 ) }
L:1/8
M:4/4
K:Eb
V:1 treble nm="Grand Piano"
V:4 treble 
V:6 treble 
V:2 bass 
V:3 bass 
V:5 bass 
V:1
 z4 z2 z[Q:1/4=84] B, | B,E .G2 [DG]2 .[A,B,F]2 |[M:7/8] B2 z2 G3 |[M:1/8] B |[M:4/4] z4 c2 z2 | %5
[M:3/4] Fd [Fd]c [B,DB]2 |[M:1/4] B>c |[M:4/4] A6 z2 | G6 z2 | [Ad]>[Ac] [GB]A GFED | %10
 E>F GA B2 B>c | A6 z2 | G6 z2 | %13
[M:35/32] [CAc][CA][Ae][DAc][EGB]/ .[B,EG]4[Q:1/4=81] z/4[Q:1/4=83][Q:1/4=80] | %14
[M:7/8][Q:1/4=78] z2[Q:1/4=66] F3/2-F/4 z/4 z z2[Q:1/4=77][Q:1/4=75][Q:1/4=74][Q:1/4=72][Q:1/4=71][Q:1/4=69][Q:1/4=68][Q:1/4=65] |] %15
V:2
 z8 | E,,2 z[K:treble] B[K:bass] B,,2 z B, |[M:7/8] B,,>A,[G,C] [F,D] [E,E]3 |[M:1/8] G | %4
[M:4/4] z[K:treble] A z A A2 [EG][K:bass][B,E] |[M:3/4] DF z E B,,2 |[M:1/4][K:treble] G>A | %7
[M:4/4] F6[K:bass][K:treble] z2 | E4[K:bass] z4 | %9
 [B,,B,]>[B,,B,] [D,B,][F,B,F] [A,B,D][A,B,D][F,A,B,][F,A,B,] | [E,G,]>F, G,A, B,2[K:treble] G>A | %11
 F6[K:bass][K:treble] z2 | E4[K:bass] z4 | %13
[M:35/32] A,,A,,[A,C]A,E,/ E,2- E,/[K:treble](3:2:4E3/2-E/4c3/4-c/8 | %14
[M:7/8] B2- B/4 z/4 z/ z/[K:bass] B,,/-B,,/4 z/4 z/ z2 |] %15
V:3
 x8 | z2 E,2[K:treble][K:bass] z2 D,2 |[M:7/8] x7 |[M:1/8] x | %4
[M:4/4] A,,2[K:treble] A,2 z4[K:bass] |[M:3/4] z2 =A,2 z2 |[M:1/4][K:treble] x2 | %7
[M:4/4] z2[K:bass] B,,>B,, B,,2[K:treble] F>D | z2[K:bass] E,>E, E,2 z E, | x8 | x6[K:treble] x2 | %11
 z2[K:bass] B,,>B,, B,,2[K:treble] F>D | z2[K:bass] E,>E, E,2 z E, |[M:35/32] x7[K:treble] x7/4 | %14
[M:7/8] z2 B,,2[K:bass] E,3 |] %15
V:4
 x8 | x8 |[M:7/8] D->[DF]E F z2 B, |[M:1/8] x |[M:4/4] .[Ac]2 [ce]c z DBG |[M:3/4] x6 |[M:1/4] x2 | %7
[M:4/4] z2 B,>B, D2 A>B | z2 B,>B, E2 z [B,GB] | x8 | x8 | z2 B,>B, D2 A>B | z2 B,>B, E2 z [_DGB] | %13
[M:35/32] x35/4 |[M:7/8] z z z z/ [A,DG]/-[A,DG]/4 z/4 z/ z2 |] %15
V:5
 x8 | x3[K:treble] x[K:bass] x4 |[M:7/8] x7 |[M:1/8] x |[M:4/4] x[K:treble] x6[K:bass] x | %5
[M:3/4] [F,-B,]2 F,2 z2 |[M:1/4][K:treble] x2 |[M:4/4] x2[K:bass] x4[K:treble] x2 | x2[K:bass] x6 | %9
 x8 | x6[K:treble] x2 | x2[K:bass] x4[K:treble] x2 | x2[K:bass] x6 |[M:35/32] x7[K:treble] x7/4 | %14
[M:7/8] x7/2[K:bass] x7/2 |] %15
V:6
 x8 | x8 |[M:7/8] x7 |[M:1/8] x |[M:4/4] x8 |[M:3/4] x6 |[M:1/4] x2 |[M:4/4] x8 | x8 | x8 | x8 | %11
 x8 | x8 |[M:35/32] x35/4 |[M:7/8] z2 [A,D]2 [G,E]3 |] %15

